public/icons/refresh.svg

<?xml version="1.0" encoding="UTF-8" standalone="no"?>
<!-- Uploaded to: SVG Repo, www.svgrepo.com, Generator: SVG Repo Mixer Tools -->
<svg 
   viewBox="0 0 600 600"
   version="1.1"
   id="svg9724"
   sodipodi:docname="refresh.svg"
   inkscape:version="1.2.2 (1:1.2.2+202212051550+b0a8486541)"
   width="600"
   height="600"
   xmlns:inkscape="http://www.inkscape.org/namespaces/inkscape"
   xmlns:sodipodi="http://sodipodi.sourceforge.net/DTD/sodipodi-0.dtd"
   xmlns="http://www.w3.org/2000/svg"
   xmlns:svg="http://www.w3.org/2000/svg">
  <defs
     id="defs9728" />
  <sodipodi:namedview
     id="namedview9726"
     pagecolor="#ffffff"
     bordercolor="#666666"
     borderopacity="1.0"
     inkscape:showpageshadow="2"
     inkscape:pageopacity="0.0"
     inkscape:pagecheckerboard="0"
     inkscape:deskcolor="#d1d1d1"
     showgrid="true"
     inkscape:zoom="0.84179691"
     inkscape:cx="377.16936"
     inkscape:cy="380.73316"
     inkscape:window-width="1920"
     inkscape:window-height="1009"
     inkscape:window-x="0"
     inkscape:window-y="1080"
     inkscape:window-maximized="1"
     inkscape:current-layer="g11314">
    <inkscape:grid
       type="xygrid"
       id="grid9972"
       originx="0"
       originy="0" />
  </sodipodi:namedview>
  
  <g
     id="g10449"
     transform="matrix(0.95173205,0,0,0.95115787,13.901174,12.168794)"
     style="stroke-width:1.05103">
    <g
       id="path10026"
       inkscape:transform-center-x="-0.59233046"
       inkscape:transform-center-y="-20.347403"
       transform="matrix(1.3807551,0,0,1.2700888,273.60014,263.99768)" />
    <g
       id="g11314"
       transform="matrix(1.5092301,0,0,1.3955555,36.774048,-9.4503933)"
       style="stroke-width:50.6951">
      <g
         id="g4738"
         transform="translate(33.390292,-2.3132277e-4)">
        <g
           id="g4820"
           transform="translate(-13.566924,-0.49606829)">
          <g
             id="g4870">
            <path
               style="color:#000000;fill:#000000;stroke-linecap:round;stroke-linejoin:round;-inkscape-stroke:none;paint-order:stroke fill markers"
               d="M 169.06641,-1.8984375 C 96.494713,-2.1954238 31.246621,46.74277 6.8925781,118.9707 a 28.9498,28.9498 0 0 0 18.1835939,36.68164 28.9498,28.9498 0 0 0 36.68164,-18.18359 C 79.914455,83.620739 127.66741,51.662548 178.18945,56.464844 c 50.52205,4.802299 93.1616,45.878476 102.47657,102.578126 a 28.9498,28.9498 0 0 0 33.25976,23.875 28.9498,28.9498 0 0 0 23.875,-33.25977 C 324.5709,69.128635 261.9621,6.2681197 183.66992,-1.1738281 c -4.89326,-0.4651215 -9.7654,-0.7048103 -14.60351,-0.7246094 z"
               id="path237-3" />
            <path
               style="color:#000000;fill:#000000;stroke-linecap:round;stroke-linejoin:round;-inkscape-stroke:none"
               d="M -3.5761719,75.59375 A 28.971347,28.971347 0 0 0 -27.863281,108.6543 l 12.892578,83.5039 a 28.971347,28.971347 0 0 0 48.685547,16.48242 L 91.734375,152.9707 A 28.971347,28.971347 0 0 0 82.263672,105.10352 L 11.349609,77.267578 A 28.971347,28.971347 0 0 0 -3.5761719,75.59375 Z"
               id="path4688" />
          </g>
        </g>
      </g>
      <g
         id="g4738-0"
         transform="matrix(-0.9491645,0,0,-0.95013436,337.48629,450.95201)"
         style="stroke-width:53.383">
        <g
           id="g4816">
          <path
             style="color:#000000;fill:#000000;stroke-linecap:round;stroke-linejoin:round;-inkscape-stroke:none;paint-order:stroke fill markers"
             d="M 186.21484,1.40625 C 109.77501,1.0937902 41.036165,52.586526 15.373047,128.61914 a 30.484751,30.484751 0 0 0 19.134765,38.63281 30.484751,30.484751 0 0 0 38.632813,-19.13476 C 92.264679,91.457984 142.58214,57.806859 195.83203,62.863281 c 53.24989,5.056427 98.16571,48.295939 107.97656,107.953129 a 30.484751,30.484751 0 0 0 35.02735,25.13476 30.484751,30.484751 0 0 0 25.13281,-35.02734 C 350.0273,76.149625 284.05908,9.9964541 201.5957,2.1660156 196.44174,1.6766137 191.31083,1.4270807 186.21484,1.40625 Z"
             id="path237-3-9" />
          <path
             style="color:#000000;fill:#000000;stroke-linecap:round;stroke-linejoin:round;-inkscape-stroke:none"
             d="M 7.5019531,82.652344 A 30.507401,30.507401 0 0 0 -21.246094,117.78125 l 13.5839846,87.88867 a 30.507401,30.507401 0 0 0 51.2539064,17.36133 l 61.126953,-58.5918 A 30.507401,30.507401 0 0 0 94.746094,114.01953 L 20.035156,84.722656 A 30.507401,30.507401 0 0 0 7.5019531,82.652344 Z"
             id="path4688-3" />
        </g>
      </g>
    </g>
  </g>
</svg>

<svg xmlns="http://www.w3.org/2000/svg" width="600" height="600" viewBox="0 0 600 600"><g style="stroke-width:1.05103"><g style="stroke-width:50.6951"><path d="M169.066-1.898C96.495-2.195 31.246 46.742 6.893 118.97a28.95 28.95 0 0 0 18.183 36.681 28.95 28.95 0 0 0 36.682-18.183c18.156-53.848 65.91-85.806 116.431-81.004 50.523 4.802 93.162 45.878 102.477 102.578a28.95 28.95 0 0 0 33.26 23.875 28.95 28.95 0 0 0 23.875-33.26C324.57 69.128 261.962 6.268 183.67-1.174a161 161 0 0 0-14.604-.724" style="color:#000;fill:#000;stroke-linecap:round;stroke-linejoin:round;-inkscape-stroke:none;paint-order:stroke fill markers" transform="matrix(1.43638 0 0 1.3274 77.374 2.521)"/><path d="M-3.576 75.594a28.97 28.97 0 0 0-24.287 33.06l12.892 83.504a28.971 28.971 0 0 0 48.686 16.483l58.02-55.67a28.97 28.97 0 0 0-9.471-47.867L11.35 77.268a28.97 28.97 0 0 0-14.926-1.674" style="color:#000;fill:#000;stroke-linecap:round;stroke-linejoin:round;-inkscape-stroke:none" transform="matrix(1.43638 0 0 1.3274 77.374 2.521)"/><g style="stroke-width:53.383"><path d="M186.215 1.406c-76.44-.312-145.179 51.18-170.842 127.213a30.485 30.485 0 0 0 19.135 38.633 30.485 30.485 0 0 0 38.633-19.135c19.124-56.659 69.441-90.31 122.691-85.254 53.25 5.057 98.166 48.296 107.977 107.953a30.485 30.485 0 0 0 35.027 25.135 30.485 30.485 0 0 0 25.133-35.027C350.027 76.15 284.059 9.996 201.596 2.166a170 170 0 0 0-15.381-.76" style="color:#000;fill:#000;stroke-linecap:round;stroke-linejoin:round;-inkscape-stroke:none;paint-order:stroke fill markers" transform="matrix(-1.36336 0 0 -1.2612 533.66 601.77)"/><path d="M7.502 82.652a30.507 30.507 0 0 0-28.748 35.13l13.584 87.888a30.507 30.507 0 0 0 51.254 17.361l61.127-58.592a30.507 30.507 0 0 0-9.973-50.42l-74.71-29.296a30.5 30.5 0 0 0-12.534-2.07" style="color:#000;fill:#000;stroke-linecap:round;stroke-linejoin:round;-inkscape-stroke:none" transform="matrix(-1.36336 0 0 -1.2612 533.66 601.77)"/></g></g></g></svg>
